src/Pure/16/symbolic/apps/com.gexperts.Tilix-symbolic.svg

<?xml version="1.0" encoding="UTF-8" standalone="no"?>
<svg
   width="16"
   height="16"
   version="1.1"
   id="svg1"
   sodipodi:docname="com.gexperts.Tilix-symbolic.svg"
   inkscape:version="1.4.2 (ebf0e940d0, 2025-05-08)"
   xmlns:inkscape="http://www.inkscape.org/namespaces/inkscape"
   xmlns:sodipodi="http://sodipodi.sourceforge.net/DTD/sodipodi-0.dtd"
   xmlns="http://www.w3.org/2000/svg"
   xmlns:svg="http://www.w3.org/2000/svg"
   xmlns:rdf="http://www.w3.org/1999/02/22-rdf-syntax-ns#"
   xmlns:cc="http://creativecommons.org/ns#"
   xmlns:dc="http://purl.org/dc/elements/1.1/">
  <defs
     id="defs1">
    <style
       id="current-color-scheme"
       type="text/css">
        .ColorScheme-Text { color:#363636; }
     </style>
  </defs>
  <sodipodi:namedview
     id="namedview1"
     pagecolor="#ffffff"
     bordercolor="#000000"
     borderopacity="0.25"
     inkscape:showpageshadow="2"
     inkscape:pageopacity="0.0"
     inkscape:pagecheckerboard="0"
     inkscape:deskcolor="#d1d1d1"
     inkscape:zoom="49.75"
     inkscape:cx="7.9899497"
     inkscape:cy="8"
     inkscape:window-width="1920"
     inkscape:window-height="1011"
     inkscape:window-x="0"
     inkscape:window-y="0"
     inkscape:window-maximized="1"
     inkscape:current-layer="svg1" />
  <title
     id="title1">Gnome Symbolic Icon Theme</title>
  <path
     id="path1"
     style="fill:currentColor"
     class="ColorScheme-Text"
     d="M 3 2 C 1.338 2 0 3.338 0 5 L 0 12 C 0 13.662 1.338 15 3 15 L 13 15 C 14.662 15 16 13.662 16 12 L 16 5 C 16 3.338 14.662 2 13 2 L 3 2 z M 3 3 L 8 3 L 8 8 L 8 9 L 8 14 L 3 14 C 1.892 14 1 13.108 1 12 L 1 5 C 1 3.892 1.892 3 3 3 z M 9 3 L 13 3 C 14.108 3 15 3.892 15 5 L 15 8 L 9 8 L 9 3 z M 3.1191406 5.7578125 C 3.0626996 5.7597125 3.0068092 5.7695804 2.953125 5.7871094 C 2.4857349 5.9055717 2.3418702 6.4990135 2.703125 6.8183594 L 4.265625 8.3808594 L 2.703125 9.9433594 C 2.1170461 10.526691 2.9947938 11.404438 3.578125 10.818359 L 5.578125 8.8183594 C 5.8306192 8.5813384 5.8306192 8.1803804 5.578125 7.9433594 L 3.578125 5.9433594 C 3.4589624 5.8183385 3.2917085 5.7507253 3.1191406 5.7578125 z M 9 9 L 15 9 L 15 12 C 15 13.108 14.108 14 13 14 L 9 14 L 9 9 z M 5 10 L 5 11 L 7 11 L 7 10 L 5 10 z " />
  <metadata
     id="metadata1">
    <rdf:RDF>
      <cc:Work
         rdf:about="">
        <dc:title>Gnome Symbolic Icon Theme</dc:title>
      </cc:Work>
    </rdf:RDF>
  </metadata>
</svg>

<svg width="16" height="16" version="1.1" xmlns="http://www.w3.org/2000/svg">
 <title>Gnome Symbolic Icon Theme</title>
 <path d="m3 2c-1.662 0-3 1.338-3 3v7c0 1.662 1.338 3 3 3h5 1 4c1.662 0 3-1.338 3-3v-3-1-3c0-1.662-1.338-3-3-3h-4-1-5zm0 1h5v5 1 5h-5c-1.108 0-2-0.892-2-2v-7c0-1.108 0.892-2 2-2zm6 0h4c1.108 0 2 0.892 2 2v3h-6v-5zm-5.8809 2.7578a0.60006 0.60006 0 0 0-0.16602 0.029297 0.60006 0.60006 0 0 0-0.25 1.0312l1.5625 1.5625-1.5625 1.5625a0.61872 0.61872 0 1 0 0.875 0.875l2-2a0.60006 0.60006 0 0 0 0-0.875l-2-2a0.60006 0.60006 0 0 0-0.45898-0.18555zm5.8809 3.2422h6v3c0 1.108-0.892 2-2 2h-4v-5zm-4 1v1h2v-1h-2z" enable-background="new" fill="#363636"/>
</svg>
